X: 58
T:Mr. Wildbore's Far(e)well. TBe.058
M:3/4
L:1/8
Q:100
C:Charles Roe
S:Thomas Bennet MS,1718, VWML
R:air
O:England
N:1. Not shown as triplets..
H:Before 1718
Z:vmp.C. Graebe..
K:E_ major
F2 | A2A2"1" ((3B=AB) | c4 d2 |  e2 ^c2 e2 | f4 e2 | \
_d2 ""d3 c | c4B2 | (Ac)(BG) F2 | E3 F G2 | \
A>B c2 (c/d/e/d/) | e2c2 d>e | f2 "1"((3f=ef) g>a |\
b>ag>f =e2 | f2B2e2 | c4B2 | A>B B2c2 | c6 ||\
c2 | e2 e2 "" d>c | _d3cB2 | g2c2e2 |\
f2 B2 d>e | f>efc_dB | e>deBcA | _d>cBA BG | \
=E4 g2 | c2 a2 (gf) | b3 "1" ((3=abe)  |\
(_ag/a/) (bg)(af)| =e3fg2 | c2f2 (B/c/d) | \
e3_dc2 | (g/f/g/a/) gd =e2 | f6 ||
